X:1
T:The Boys of the Old Brigade
M:4/4
L:1/4
K:F
 C2| A3 B| c3 A| B- A G- F| D3 B| A3 A| B- A G- F| G4-| G z C2| A3 B|\
 c3 A| B- A G- F| D2 B B| A3 A| B- G F- E| F4-| F z F2| E3 F| G3 A|\
 B2 c2| c3 B| A3 c| B2 A2| G4-| G z C2| A3 B| c3 A| B- A G- F| D3 B|\
 A3 A| B- G F- E| F4-| F z F2| E3 F| G3 A| B2 c2| c3 B| A3 c| B2 A2|\
 G4-| G z C2| C3 D| E3 F| G2 A2| B3 B| A2 G F| A3 G| F4-| F z||
